!!!OTL: Minzu zhengze nuanrenxin
!!!ARE: Asia, China,ÿQinghai Haibei
!! I, 230
!!!SCT: C2073
!!!YEM: Copyright 1995, estate of Helmut Schaffrath.
**kern
*ICvox
*Ivox
!! Mixed meters:  2/4; 3/4
*M2/4
*k[f#c#g#]
*A:
{2e
=1
8f#
16a
16b
8b
16b
16a
=2
8.f#
16e
4e
=3
4e
8f#
16a
16b
=4
2b
=5
4ee
16ee
16ff#
8b
=6
16b
16a
16b
16a
8f#
8r}
=7
{4e
8f#
16a
16b
=8
4.b
8ee
=9
4ee
4ee}
=10
{8.b
16e
4e
=11
8f#
16a
16b
8.b
16ee
=12
4ee
16ee
16ff#
8b
=13
4b
16b
16ee
16b
16a
=14
8f#
8r
4r
=15
8.f#
16e
4e}
=16
{8.e
16f#
4b
=17
16b
16ee
16b
16a
8.f#
16e
=18
2e
=19
4e
4r}
==
!!!AGN: Shange, Huar, Menyuanling
!! Hui Han
!!!ONB: ESAC (Essen Associative Code) Database: SENGANSU
!!!AMT: irregular
!!!AIN: vox
!!!EED: Helmut Schaffrath
!!!EEV: 1.0
*-
